places/scalable/folder-magenta-image-people.svg

<svg xmlns="http://www.w3.org/2000/svg" style="isolation:isolate" width="256" height="256"><path d="M53.039 21C16.724 21 13 23.055 13 59.371v52.167h230V79.563c0-36.316-3.724-42.102-40.039-42.102h-89.336L97.198 21H53.039z" fill="#C61B34"/><path d="M53.039 70.384C16.722 70.384 13 74.114 13 110.429v84.524C13 231.269 16.722 235 53.039 235h149.922c36.317 0 40.039-3.731 40.039-40.047V93.969c0-36.316-3.722-40.047-40.039-40.047H119.53l-16.438 16.462H53.039z" fill="#F74761"/><linearGradient id="a" y1=".5" x2="0" y2="-.5" gradientTransform="matrix(230 0 0 181.078 13 53.922)" gradientUnits="userSpaceOnUse"><stop offset="0%" stop-opacity=".07" stop-color="#fff"/><stop offset="67.282%" stop-opacity="0" stop-color="#fcefe8"/></linearGradient><path d="M53.039 70.384C16.722 70.384 13 74.114 13 110.429v84.524C13 231.269 16.722 235 53.039 235h149.922c36.317 0 40.039-3.731 40.039-40.047V93.969c0-36.316-3.722-40.047-40.039-40.047H119.53l-16.438 16.462H53.039z" fill="url(#a)"/><g opacity=".4"><radialGradient id="b" fx=".5" fy=".136" cx=".5" cy=".5" r=".272" gradientTransform="matrix(230 0 0 60.62 13 21)" gradientUnits="userSpaceOnUse"><stop offset="0%" stop-color="#fff"/><stop offset="100%" stop-opacity=".204" stop-color="#fff"/></radialGradient><path d="M53.039 21C16.724 21 13 23.055 13 59.371v2.059c0-36.316 3.724-38.373 40.039-38.373h44.159l16.427 16.461h89.336c36.315 0 40.039 5.786 40.039 42.102v-2.057c0-36.316-3.724-42.102-40.039-42.102h-89.336L97.198 21H53.039z" fill="url(#b)"/></g><g opacity=".4"><radialGradient id="c" fx=".482" fy=".211" cx=".5" cy=".5" r=".272" gradientTransform="matrix(230 0 0 58.565 13 53.922)" gradientUnits="userSpaceOnUse"><stop offset="0%" stop-color="#fff"/><stop offset="100%" stop-opacity=".204" stop-color="#fff"/></radialGradient><path d="M119.53 53.922l-16.438 16.462H53.039C16.724 70.384 13 74.112 13 110.427v2.06c0-36.316 3.724-40.046 40.039-40.046h50.053l16.438-16.46h83.431c36.315 0 40.039 3.727 40.039 40.043v-2.057c0-36.316-3.724-40.045-40.039-40.045H119.53z" fill="url(#c)"/></g><path d="M243 167.096l-65.715 65.845h25.676c36.315 0 40.039-3.727 40.039-40.043v-25.802z" fill="#FFF" opacity=".1"/><path d="M13 192.898v2.057C13 231.271 16.724 235 53.039 235h149.922c36.315 0 40.039-3.729 40.039-40.045v-2.057c0 36.316-3.724 40.043-40.039 40.043H53.039c-36.315 0-40.039-3.727-40.039-40.043z" opacity=".2"/><g opacity=".62"><path d="M128 92.001c-4.232 0-8.256.784-11.952 2.36-3.68 1.504-6.944 3.704-9.656 6.56l-.016.032-.016.016c-2.64 2.872-4.688 6.32-6.128 10.24a36.42 36.42 0 0 0-2.16 12.8c0 4.64.696 8.976 2.16 12.896 1.44 3.856 3.488 7.264 6.128 10.128l.016.016.016.016c2.704 2.847 5.944 5.087 9.608 6.655l.032.016.032.016C119.76 155.256 123.776 156 128 156s8.224-.744 11.92-2.248v-.016a27.766 27.766 0 0 0 9.52-6.671c2.72-2.864 4.8-6.288 6.24-10.16 1.48-3.92 2.176-8.248 2.176-12.904h.064c0-4.584-.696-8.872-2.16-12.784a29.536 29.536 0 0 0-6.24-10.264 26.661 26.661 0 0 0-9.568-6.592A30.252 30.252 0 0 0 128 92.001zm0 8c3.248 0 6.16.584 8.816 1.72l.08.032.08.016c2.64 1.08 4.856 2.608 6.696 4.608v.08c1.92 2.024 3.448 4.512 4.552 7.52v.04c1.04 2.808 1.552 6.024 1.592 9.616v.368c0 3.856-.576 7.2-1.656 10.096v.016a21.677 21.677 0 0 1-4.56 7.448l-.08.032v.032c-1.872 2.024-4.112 3.6-6.784 4.752A23.113 23.113 0 0 1 128 148c-3.28 0-6.216-.575-8.88-1.655h-.024c-2.6-1.12-4.8-2.696-6.704-4.656l-.408-.56-.064-.048a22.392 22.392 0 0 1-4.192-6.968 28.755 28.755 0 0 1-1.656-10.112c0-3.768.568-7.088 1.656-10l.016-.016v-.032c1.104-3.008 2.6-5.472 4.44-7.488l.096-.08c1.92-2 4.16-3.544 6.8-4.624l.048-.032.064-.016c2.64-1.12 5.56-1.712 8.808-1.712zM184 212h-8c0-6.92-.56-10.4-1.88-14.664-1.32-4.264-3.28-7.232-6.512-9.68-6.48-4.88-16.88-7.464-39.376-7.464-22.504 0-33.32 2.576-39.8 7.464-3.24 2.44-5.2 5.408-6.528 9.68C80.576 201.608 80.016 205.08 80 212l-8-.016c.016-7.312.552-11.52 2.264-17.024 1.712-5.504 4.752-10.216 9.352-13.688 9.2-6.936 21.56-9.072 44.616-9.072 23.048 0 35.008 2.136 44.2 9.08 4.592 3.472 7.624 8.192 9.328 13.696C183.472 200.48 184 204.68 184 212z" fill="#FFF"/></g></svg>

<?xml version="1.0" standalone="no"?><!-- Generator: Gravit.io -->
<svg xmlns="http://www.w3.org/2000/svg" 
  xmlns:xlink="http://www.w3.org/1999/xlink" style="isolation:isolate" viewBox="0 0 256 256" width="256" height="256">
  <switch>
    <g>
      <g id="folder">
        <path d=" M 53.039 21 C 16.724 21 13 23.055 13 59.371 L 13 111.538 L 243 111.538 L 243 79.563 C 243 43.247 239.276 37.461 202.961 37.461 L 113.625 37.461 L 97.198 21 L 53.039 21 Z " id="orange" fill="#C61B34"/>
        <path d=" M 53.039 70.384 C 16.722 70.384 13 74.114 13 110.429 L 13 194.953 C 13 231.269 16.722 235 53.039 235 L 202.961 235 C 239.278 235 243 231.269 243 194.953 L 243 93.969 C 243 57.653 239.278 53.922 202.961 53.922 L 119.53 53.922 L 103.092 70.384 L 53.039 70.384 Z " id="change-color-easy" fill="#F74761"/>
        <linearGradient id="_lgradient_16" x1="0" y1="0.5" x2="2.83276944882399e-16" y2="-0.5" gradientTransform="matrix(230,0,0,181.078,13,53.922)" gradientUnits="userSpaceOnUse">
          <stop offset="0%" stop-opacity="0.07" style="stop-color:rgb(255,255,255)"/>
          <stop offset="67.28219512106674%" stop-opacity="0" style="stop-color:rgb(252,239,232)"/>
        </linearGradient>
        <path d=" M 53.039 70.384 C 16.722 70.384 13 74.114 13 110.429 L 13 194.953 C 13 231.269 16.722 235 53.039 235 L 202.961 235 C 239.278 235 243 231.269 243 194.953 L 243 93.969 C 243 57.653 239.278 53.922 202.961 53.922 L 119.53 53.922 L 103.092 70.384 L 53.039 70.384 Z " id="gradient white" fill="url(#_lgradient_16)"/>
        <g opacity="0.4">
          <radialGradient id="_rgradient_31" fx="0.5000000213726793" fy="0.13577386516315215" cx="0.5" cy="0.5" r="0.27154159375000003" gradientTransform="matrix(230,0,0,60.62,13,21)" gradientUnits="userSpaceOnUse">
            <stop offset="0%" stop-opacity="1" style="stop-color:rgb(255,255,255)"/>
            <stop offset="100%" stop-opacity="0.20392157" style="stop-color:rgb(255,255,255)"/>
          </radialGradient>
          <path d=" M 53.039 21 C 16.724 21 13 23.055 13 59.371 L 13 61.43 C 13 25.114 16.724 23.057 53.039 23.057 L 97.198 23.057 L 113.625 39.518 L 202.961 39.518 C 239.276 39.518 243 45.304 243 81.62 L 243 79.563 C 243 43.247 239.276 37.461 202.961 37.461 L 113.625 37.461 L 97.198 21 L 53.039 21 Z " id="white" fill="url(#_rgradient_31)"/>
        </g>
        <g opacity="0.4">
          <radialGradient id="_rgradient_32" fx="0.48214287810452355" fy="0.2108154047287485" cx="0.5" cy="0.5" r="0.27154159375" gradientTransform="matrix(230,0,0,58.565,13,53.922)" gradientUnits="userSpaceOnUse">
            <stop offset="0%" stop-opacity="1" style="stop-color:rgb(255,255,255)"/>
            <stop offset="100%" stop-opacity="0.20392157" style="stop-color:rgb(255,255,255)"/>
          </radialGradient>
          <path d=" M 119.53 53.922 L 103.092 70.384 L 53.039 70.384 C 16.724 70.384 13 74.112 13 110.427 L 13 112.487 C 13 76.171 16.724 72.441 53.039 72.441 L 103.092 72.441 L 119.53 55.981 L 202.961 55.981 C 239.276 55.981 243 59.708 243 96.024 L 243 93.967 C 243 57.651 239.276 53.922 202.961 53.922 L 119.53 53.922 Z " id="white" fill="url(#_rgradient_32)"/>
        </g>
        <g opacity="0.1">
          <path d=" M 243 167.096 L 177.285 232.941 L 202.961 232.941 C 239.276 232.941 243 229.214 243 192.898 L 243 167.096 Z " id="white" fill="rgb(255,255,255)"/>
        </g>
        <g opacity="0.2">
          <path d=" M 13 192.898 L 13 194.955 C 13 231.271 16.724 235 53.039 235 L 202.961 235 C 239.276 235 243 231.271 243 194.955 L 243 192.898 C 243 229.214 239.276 232.941 202.961 232.941 L 53.039 232.941 C 16.724 232.941 13 229.214 13 192.898 Z " id="dark" fill="rgb(0,0,0)"/>
        </g>
      </g>
      <g opacity="0.62">
        <path d=" M 128 92.001 C 123.768 92.001 119.744 92.785 116.048 94.361 C 112.368 95.865 109.104 98.065 106.392 100.921 L 106.376 100.953 L 106.36 100.969 C 103.72 103.841 101.672 107.289 100.232 111.209 C 98.751 115.312 98.02 119.647 98.072 124.009 C 98.072 128.649 98.768 132.985 100.232 136.905 C 101.672 140.761 103.72 144.169 106.36 147.033 L 106.376 147.049 L 106.392 147.065 C 109.096 149.912 112.336 152.152 116 153.72 L 116.032 153.736 L 116.064 153.752 C 119.76 155.256 123.776 156 128 156 C 132.224 156 136.224 155.256 139.92 153.752 L 139.92 153.736 C 143.529 152.209 146.773 149.935 149.44 147.065 C 152.16 144.201 154.24 140.777 155.68 136.905 C 157.16 132.985 157.856 128.657 157.856 124.001 L 157.92 124.001 C 157.92 119.417 157.224 115.129 155.76 111.217 C 154.405 107.404 152.281 103.911 149.52 100.953 C 146.854 98.079 143.587 95.828 139.952 94.361 C 136.169 92.772 132.103 91.969 128 92.001 Z  M 128 100.001 C 131.248 100.001 134.16 100.585 136.816 101.721 L 136.896 101.753 L 136.976 101.769 C 139.616 102.849 141.832 104.377 143.672 106.377 L 143.672 106.457 C 145.592 108.481 147.12 110.969 148.224 113.977 L 148.224 114.017 C 149.264 116.825 149.776 120.041 149.816 123.633 L 149.816 124.001 C 149.816 127.857 149.24 131.201 148.16 134.097 L 148.16 134.113 C 147.161 136.879 145.61 139.413 143.6 141.561 L 143.52 141.593 L 143.52 141.625 C 141.648 143.649 139.408 145.225 136.736 146.377 C 133.956 147.478 130.99 148.029 128 148 C 124.72 148 121.784 147.425 119.12 146.345 L 119.096 146.345 C 116.496 145.225 114.296 143.649 112.392 141.689 L 111.984 141.129 L 111.92 141.081 C 110.109 139.033 108.688 136.672 107.728 134.113 C 106.575 130.868 106.014 127.443 106.072 124.001 C 106.072 120.233 106.64 116.913 107.728 114.001 L 107.744 113.985 L 107.744 113.953 C 108.848 110.945 110.344 108.481 112.184 106.465 L 112.28 106.385 C 114.2 104.385 116.44 102.841 119.08 101.761 L 119.128 101.729 L 119.192 101.713 C 121.832 100.593 124.752 100.001 128 100.001 L 128 100.001 Z  M 184 212 L 176 212 C 176 205.08 175.44 201.6 174.12 197.336 C 172.8 193.072 170.84 190.104 167.608 187.656 C 161.128 182.776 150.728 180.192 128.232 180.192 C 105.728 180.192 94.912 182.768 88.432 187.656 C 85.192 190.096 83.232 193.064 81.904 197.336 C 80.576 201.608 80.016 205.08 80 212 L 72 211.984 C 72.016 204.672 72.552 200.464 74.264 194.96 C 75.976 189.456 79.016 184.744 83.616 181.272 C 92.816 174.336 105.176 172.2 128.232 172.2 C 151.28 172.2 163.24 174.336 172.432 181.28 C 177.024 184.752 180.056 189.472 181.76 194.976 C 183.472 200.48 184 204.68 184 212 L 184 212 Z " id="image-people" fill="#FFFFFF"/>
      </g>
    </g>
  </switch>
</svg>
